images/charts.svg

<svg width="10" height="13" viewBox="0 0 10 13" fill="none" xmlns="http://www.w3.org/2000/svg">
<path d="M6 0.388916H4V12.3889H6V0.388916Z" fill="black"/>
<path d="M2 4.38892H0V12.3889H2V4.38892Z" fill="black"/>
<path d="M10 3.38892H8V12.3889H10V3.38892Z" fill="black"/>
</svg>

<svg width="10" height="13" fill="none" xmlns="http://www.w3.org/2000/svg"><path d="M6 .389H4v12h2v-12zM2 4.389H0v8h2v-8zM10 3.389H8v9h2v-9z" fill="#000"/></svg>
